X:80
T:Slieve Russell
M:6/8
L:1/8
K:A Dorian
eAA Bcd|eaf ged|edB cBA|BGG Bcd|!
eAA Bcd|eaf ged|edB cBA|BAG A3:|!
eaa efg|agf ged|eaa efg|fed e2d|!
eaa efg|agf ged|edB cBA|BAG A3:|!
